Adwaita++-Light/panel/16/firewall-applet-panic.svg

<svg height="16" width="16" xmlns="http://www.w3.org/2000/svg">
  <path d="m7.9355469 1.0117188-5.8027344 2.0371093c-.0792.0279993-.1328125.4157395-.1328125.5 0 8.4514559 5.9692063 11.4478069 6 11.4511719 0 0 6-2.999716 6-11.4511719 0-.084261-.05396-.4720007-.132812-.5l-5.8027349-2.0371093c-.042857-.0151372-.086049-.0151372-.1289062 0zm.0644531 2.0976562 3.851562 1.3515625c-.307038 4.7277052-2.4927297 7.1730765-3.8124995 8.1386715-.4338931-.334622-.9557135-.764794-1.5097656-1.433593-1.128325-1.3620085-2.1586736-3.5623375-2.3730469-6.7070316zm-1 .9023438v4.0001406h2v-4.0001406zm1 4.9884218c-.5522847 0-1 .4477153-1 1.0000004 0 .552284.4477153 1 1 1s1-.447716 1-1c0-.5522851-.4477153-1.0000004-1-1.0000004z" fill="#4285f4"/>
</svg>

<svg xmlns="http://www.w3.org/2000/svg" width="16" height="16" version="1">
 <defs>
  <style id="current-color-scheme" type="text/css">
   .ColorScheme-Text { color:#444444; } .ColorScheme-Highlight { color:#4285f4; }
  </style>
 </defs>
 <path style="fill:currentColor" class="ColorScheme-Highlight" d="M 7.9355469,1.0117188 2.1328125,3.0488281 C 2.0536125,3.0768274 2,3.4645676 2,3.5488281 2,12.000284 7.9692063,14.996635 8,15 c 0,0 6,-2.999716 6,-11.4511719 0,-0.084261 -0.05396,-0.4720007 -0.132812,-0.5 L 8.0644531,1.0117188 c -0.042857,-0.0151372 -0.086049,-0.0151372 -0.1289062,0 z M 8,3.109375 11.851562,4.4609375 C 11.544524,9.1886427 9.3588323,11.634014 8.0390625,12.599609 7.6051694,12.264987 7.083349,11.834815 6.5292969,11.166016 5.4009719,9.8040075 4.3706233,7.6036785 4.15625,4.4589844 Z m -1,0.9023438 0,4.0001406 2,0 0,-4.0001406 z m 1,4.9884218 c -0.5522847,0 -1,0.4477153 -1,1.0000004 0,0.552284 0.4477153,1 1,1 0.5522847,0 1,-0.447716 1,-1 C 9,9.4478559 8.5522847,9.0001406 8,9.0001406 Z"/>
</svg>
